X: 665
T: Etme Ruhsârın Nühüft
C: Ahmet Avni Konuk
O: Turkey
F: http://compmusic.upf.edu/node/140
N: nuhuft--kupe--aksaksemai--etme--ahmet_avni_konuk
N: makam= nuhuft
N: form= kupe
N: usul= aksaksemai = 10/8
M: 10/8
L: 1/16
K: C _1/4B ^f  
Q: 1/4=102
%%MIDI tuningsystem comma53
d4 d2A3Gdc _2/4Bcd4z2  | ded2 e2^3/4f2 g2f2 a2ag fed2  | 
w:  Et me  ruh *  *  *  *  *  sâ  |  rın  *  *  Nü hüft  *  *  *  üf  | 
d4 e2ed cdc2 _2/4B2g2 ^3/4f2g2  | \
w:  tâ de  i  *  *  *  *  *  nâ  | 
^3/4f2fe d2e2 =feed dcd4z2  | 
w:  çâ *  *  re den    | 
A4 e2e2 edd2 dcc2 _2/4B2A2  | A_2/4BA2 G2^3/4F2 EFE2 F2AG FED2  | 
w:  Kur tar_ ey  *  *  *  *  *  gül  |  ruh  *  *  dil_ i  *  *  şey  | 
d4 d2A4e4d2 c2_2/4B2  | A=BA2 G2G^3/4F FED2 E2E4z2  | |


